src/images/shelf-2.svg

<svg xmlns="http://www.w3.org/2000/svg" width="829" height="129" fill="none" viewBox="0 0 829 129"><g clip-path="url(#clip0)"><path fill="#F7A501" fill-rule="evenodd" stroke="#F7A501" stroke-linecap="round" stroke-linejoin="round" stroke-width="3" d="M1.28784 1.28839H826.493V42.5591H1.28784V1.28839Z" clip-rule="evenodd"/><path fill="#35416B" fill-rule="evenodd" stroke="#35416B" stroke-linecap="round" stroke-linejoin="round" stroke-width="3" d="M1.88879 41.7861L827.712 43.4352L795.465 58.2858L38.8756 58.7152L1.88879 41.7861Z" clip-rule="evenodd"/><path fill="#35416B" fill-rule="evenodd" stroke="#35416B" stroke-linecap="round" stroke-linejoin="round" stroke-width="3" d="M127.496 123.786L116.223 90.8128L104.985 57.8563C103.199 52.6256 106.127 48.4083 111.527 48.4083L126.887 48.1678C128.438 48.1137 129.983 48.3893 131.42 48.9763C132.857 49.5633 134.154 50.4485 135.224 51.5734C136.294 52.6984 137.113 54.0374 137.628 55.5024C138.143 56.9674 138.342 58.5249 138.211 60.0723L134.013 123.829C132.184 129.017 129.282 129.017 127.496 123.786Z" clip-rule="evenodd"/><path fill="#35416B" fill-rule="evenodd" stroke="#35416B" stroke-linecap="round" stroke-linejoin="round" stroke-width="3" d="M725.02 120.634L736.293 87.6606L747.566 54.6869C749.351 49.4561 746.424 45.2389 741.023 45.2389L725.672 44.9898C724.12 44.9371 722.575 45.2138 721.137 45.8018C719.7 46.3897 718.403 47.2755 717.332 48.401C716.262 49.5264 715.441 50.8659 714.926 52.3313C714.41 53.7966 714.21 55.3547 714.339 56.9029L718.546 120.66C720.332 125.865 723.234 125.865 725.02 120.634Z" clip-rule="evenodd"/></g><defs><clipPath id="clip0"><rect width="829" height="129" fill="#fff"/></clipPath></defs></svg>

<svg fill="none" viewBox="0 0 829 129"><g fill-rule="evenodd" stroke-linecap="round" stroke-linejoin="round" stroke-width="3" clip-path="url(#clip0)" clip-rule="evenodd"><path fill="#F7A501" stroke="#F7A501" d="M1.288 1.288h825.205V42.56H1.288V1.29z"/><path fill="#35416B" stroke="#35416B" d="M1.889 41.786l825.823 1.65-32.247 14.85-756.59.43L1.89 41.785z"/><path fill="#35416B" stroke="#35416B" d="M127.496 123.786l-11.273-32.973-11.238-32.957c-1.786-5.23 1.142-9.448 6.542-9.448l15.36-.24a10.975 10.975 0 0110.741 7.334c.515 1.465.714 3.023.583 4.57l-4.198 63.757c-1.829 5.188-4.731 5.188-6.517-.043zm597.524-3.152l11.273-32.973 11.273-32.974c1.785-5.23-1.142-9.448-6.543-9.448l-15.351-.25a10.994 10.994 0 00-10.746 7.342 11.011 11.011 0 00-.587 4.572l4.207 63.757c1.786 5.205 4.688 5.205 6.474-.026z"/></g><defs><clipPath id="clip0"><path fill="#fff" d="M0 0h829v129H0z"/></clipPath></defs></svg>
